X:6
T:Josskvarnleken - Malung Longdance
R:Longdans
O:Sweden
M:3/4
A:Dalarna
K:A
a3b ag | a2 g2 eg | g2 f2 d2 | e2 c2 A2|A4 A2|\
a3b ag | a2 g2 eg | g2 f2 d2 \
|1 e4 e2| e4 e2 :|2 e4 e2 | e3d cd ||
|: e3f ed|c2A2 ce|B2G2 Be|c2A2 cd| \
e3f ed|c2A2 ce|B2G2 B2|1A3B cd :|2 A6 :|
